icons/walk-fill.svg

<svg xmlns="http://www.w3.org/2000/svg" width="24" height="24" fill="none"><g clip-path="url(#a)"><g><path fill="#121212" d="M7.61702 8.712L10.822 6.384C11.1818 6.1207 11.6194 5.98551 12.065 6C12.6085 6.01355 13.1343 6.19611 13.5693 6.52228C14.0042 6.84846 14.3268 7.30205 14.492 7.82C14.678 8.403 14.848 8.797 15.002 9.002C15.4673 9.6228 16.0709 10.1266 16.7649 10.4734C17.4589 10.8203 18.2242 11.0005 19 11V13C17.9673 13.0011 16.9472 12.7733 16.0131 12.3329C15.079 11.8925 14.2542 11.2504 13.598 10.453L12.901 14.408L14.962 16.138L17.185 22.246L15.305 22.93L13.265 17.326L9.87502 14.481C9.59682 14.2564 9.38394 13.9612 9.25854 13.6264C9.13314 13.2915 9.09981 12.9291 9.16202 12.577L9.67102 9.692L8.99402 10.184L6.86702 13.112L5.24902 11.936L7.60002 8.7L7.61702 8.712ZM13.5 5.5C12.9696 5.5 12.4609 5.28929 12.0858 4.91421C11.7107 4.53914 11.5 4.03043 11.5 3.5C11.5 2.96957 11.7107 2.46086 12.0858 2.08579C12.4609 1.71071 12.9696 1.5 13.5 1.5C14.0305 1.5 14.5392 1.71071 14.9142 2.08579C15.2893 2.46086 15.5 2.96957 15.5 3.5C15.5 4.03043 15.2893 4.53914 14.9142 4.91421C14.5392 5.28929 14.0305 5.5 13.5 5.5ZM10.528 18.681L7.31402 22.511L5.78202 21.226L8.75802 17.68L9.50402 15.5L11.295 17L10.528 18.681Z"/></g></g><defs><clipPath id="a"><rect width="24" height="24" fill="white"/></clipPath></defs></svg>

<svg width="24" height="24" fill="none" xmlns="http://www.w3.org/2000/svg"><g clip-path="url(#a)"><path d="m7.617 8.712 3.205-2.328A2 2 0 0 1 12.065 6a2.616 2.616 0 0 1 2.427 1.82c.186.583.356.977.51 1.182A4.992 4.992 0 0 0 19 11v2a6.987 6.987 0 0 1-5.402-2.547l-.697 3.955 2.061 1.73 2.223 6.108-1.88.684-2.04-5.604-3.39-2.845a2 2 0 0 1-.713-1.904l.509-2.885-.677.492-2.127 2.928-1.618-1.176L7.6 8.7l.017.012ZM13.5 5.5a2 2 0 1 1 0-4 2 2 0 0 1 0 4Zm-2.972 13.181-3.214 3.83-1.532-1.285 2.976-3.546.746-2.18 1.791 1.5-.767 1.681Z" /></g><defs><clipPath id="a"><path fill="#fff" d="M0 0h24v24H0z"/></clipPath></defs></svg>
